X: 22
T:Saddle the Pony
M:6/8
L:1/8
R:Jig
Z:Peter Harris , pharris @cincom.com
K:G
D | GBA G2 B | def gdB | GBA G2 B | AFD AFD |
 GBA G2 B | def gfg | efe dBA | BGG G2 :|
B | efe edB | def gfg | efe edB | dBA ABd |
 efe edB | def gfg | efe dBA| BGG G2 :|
